src/assets/img/ico-telegram.svg

<svg width="16" height="14" viewBox="0 0 16 14" fill="none" xmlns="http://www.w3.org/2000/svg">
<path d="M0.282729 6.71437L3.96945 8.09037L5.39644 12.6795C5.48774 12.9735 5.84716 13.0821 6.08572 12.8871L8.14076 11.2118C8.35617 11.0362 8.663 11.0275 8.88812 11.1909L12.5947 13.8819C12.8499 14.0674 13.2114 13.9276 13.2754 13.6192L15.9907 0.558373C16.0605 0.221519 15.7296 -0.059494 15.4088 0.0645593L0.278409 5.90141C-0.0949774 6.04541 -0.0917241 6.57405 0.282729 6.71437ZM5.16646 7.35789L12.3717 2.92019C12.5012 2.84067 12.6344 3.01576 12.5232 3.11891L6.57681 8.64637C6.3678 8.84093 6.23297 9.10131 6.19478 9.38392L5.99222 10.885C5.9654 11.0855 5.68385 11.1054 5.62854 10.9114L4.8495 8.17405C4.76028 7.86184 4.8903 7.52835 5.16646 7.35789Z" fill="black"/>
</svg>

<svg width="16" height="14" fill="none" xmlns="http://www.w3.org/2000/svg"><path d="M.283 6.714L3.969 8.09l1.427 4.59c.092.293.451.402.69.207l2.055-1.675a.613.613 0 01.747-.021l3.707 2.69a.434.434 0 00.68-.262L15.991.56a.435.435 0 00-.582-.494L.279 5.9a.435.435 0 00.004.813zm4.883.644l7.206-4.438c.13-.08.262.096.151.199L6.577 8.646a1.233 1.233 0 00-.382.738l-.203 1.501c-.027.2-.308.22-.363.026l-.78-2.737a.725.725 0 01.317-.816z" fill="#000"/></svg>
